flaticon/grooming/perfume-2.svg

<svg xmlns="http://www.w3.org/2000/svg" width="32" height="32" viewBox="0 0 24 24">
    <path d="M3.789062 2.769531L4.1875 2.769531C4.429688 2.769531 4.589844 2.609375 4.589844 2.371094 4.589844 2.128906 4.429688 1.96875 4.1875 1.96875L3.789062 1.96875C3.546875 1.96875 3.386719 2.128906 3.386719 2.371094 3.386719 2.609375 3.546875 2.769531 3.789062 2.769531zM.984375 1.96875L.585938 1.96875C.34375 1.96875.183594 2.128906.183594 2.371094.183594 2.609375.34375 2.769531.585938 2.769531L.984375 2.769531C1.226562 2.769531 1.386719 2.609375 1.386719 2.371094 1.386719 2.128906 1.226562 1.96875.984375 1.96875zM5.390625 1.96875C5.152344 1.96875 4.992188 2.128906 4.992188 2.371094 4.992188 2.609375 5.152344 2.769531 5.390625 2.769531L5.792969 2.769531C6.03125 2.769531 6.191406 2.609375 6.191406 2.371094 6.191406 2.128906 6.03125 1.96875 5.792969 1.96875zM2.1875 2.769531L2.585938 2.769531C2.828125 2.769531 2.988281 2.609375 2.988281 2.371094 2.988281 2.128906 2.828125 1.96875 2.585938 1.96875L2.1875 1.96875C1.945312 1.96875 1.785156 2.128906 1.785156 2.371094 1.785156 2.609375 1.945312 2.769531 2.1875 2.769531zM3.75 1.128906L4.148438 1.210938C4.1875 1.210938 4.1875 1.25 4.230469 1.25 4.429688 1.25 4.589844 1.089844 4.628906.890625 4.671875.6875 4.511719.449219 4.308594.40625L3.910156.328125C3.707031.289062 3.46875.449219 3.429688.648438 3.386719.890625 3.546875 1.089844 3.75 1.128906zM5.3125 1.488281L5.710938 1.570312C5.75 1.570312 5.75 1.570312 5.792969 1.570312 5.992188 1.570312 6.152344 1.449219 6.191406 1.25 6.230469 1.050781 6.070312.808594 5.871094.769531L5.472656.6875C5.269531.648438 5.03125.808594 4.992188 1.007812 4.949219 1.210938 5.109375 1.449219 5.3125 1.488281zM2.1875.769531L2.585938.890625C2.628906.890625 2.628906.890625 2.667969.890625 2.828125.890625 3.027344.769531 3.066406.566406 3.109375.367188 2.949219.128906 2.746094.0859375L2.347656.0078125C2.148438-.03125 1.945312.0859375 1.867188.328125 1.828125.527344 1.988281.730469 2.1875.769531zM2.585938 3.894531L2.1875 3.972656C1.988281 4.011719 1.828125 4.214844 1.867188 4.453125 1.90625 4.652344 2.066406 4.773438 2.265625 4.773438 2.308594 4.773438 2.347656 4.773438 2.347656 4.734375L2.746094 4.652344C2.988281 4.613281 3.109375 4.375 3.066406 4.171875 2.988281 3.972656 2.789062 3.851562 2.585938 3.894531zM4.148438 3.53125L3.75 3.613281C3.546875 3.652344 3.386719 3.894531 3.429688 4.09375 3.46875 4.292969 3.628906 4.414062 3.828125 4.414062 3.867188 4.414062 3.910156 4.414062 3.910156 4.414062L4.308594 4.332031C4.550781 4.292969 4.671875 4.09375 4.628906 3.851562 4.589844 3.613281 4.351562 3.492188 4.148438 3.53125zM5.390625 4.054688C5.429688 4.054688 5.472656 4.054688 5.472656 4.054688L5.871094 3.972656C6.113281 3.933594 6.230469 3.691406 6.191406 3.492188 6.152344 3.25 5.910156 3.132812 5.710938 3.171875L5.3125 3.25C5.070312 3.292969 4.949219 3.53125 4.992188 3.734375 5.03125 3.933594 5.191406 4.054688 5.390625 4.054688zM21.8125 9.238281L21.8125 6.777344C21.8125 4.132812 19.648438 1.96875 17.007812 1.96875L11 1.96875 11 1.167969C11 .929688 10.839844.769531 10.597656.769531L8.195312.769531C7.953125.769531 7.792969.929688 7.792969 1.167969L7.792969 3.171875 7.753906 3.171875C7.3125 3.171875 6.992188 3.53125 6.992188 3.933594L6.992188 5.886719C6.925781 5.925781 6.859375 5.96875 6.792969 6.015625 5.230469 7.058594 3.386719 9.019531 3.386719 12.425781L3.386719 13.144531C3.386719 13.828125 3.484375 14.511719 3.640625 15.179688 3.683594 15.371094 3.734375 15.558594 3.789062 15.75L5.832031 22.398438C6.113281 23.359375 6.992188 24 7.996094 24L10.839844 24C11.839844 24 12.679688 23.359375 13 22.398438L15.042969 15.707031C15.246094 15.027344 15.363281 14.308594 15.40625 13.585938 15.40625 13.539062 15.390625 13.472656 15.359375 13.414062 15.363281 13.324219 15.363281 13.234375 15.363281 13.144531L15.363281 12.425781C15.363281 9.019531 13.523438 7.058594 11.960938 6.015625 11.921875 5.988281 11.878906 5.960938 11.839844 5.9375L11.839844 3.933594C11.839844 3.492188 11.480469 3.171875 11.078125 3.171875L11 3.171875 11 2.769531 17.007812 2.769531C19.210938 2.769531 21.011719 4.574219 21.011719 6.777344L21.011719 9.238281C19.851562 9.582031 19.007812 11.410156 19.007812 13.785156 19.007812 16.429688 20.050781 18.390625 21.414062 18.390625 22.773438 18.390625 23.816406 16.429688 23.816406 13.785156 23.816406 11.410156 22.972656 9.582031 21.8125 9.238281zM4.1875 12.382812C4.1875 9.453125 5.75 7.707031 7.082031 6.726562L7.554688 6.457031C8.011719 6.21875 8.5 6.078125 8.992188 6.027344 8.914062 10.824219 7.570312 14.15625 6.320312 14.375 5.539062 14.316406 4.796875 13.992188 4.195312 13.429688 4.191406 13.320312 4.1875 13.214844 4.1875 13.105469zM12.242188 22.15625C12.039062 22.796875 11.480469 23.199219 10.839844 23.199219L7.996094 23.199219C7.355469 23.199219 6.792969 22.757812 6.59375 22.15625L4.550781 15.46875C4.457031 15.167969 4.378906 14.863281 4.324219 14.554688 4.890625 14.921875 5.511719 15.144531 6.191406 15.183594L6.191406 15.1875C6.203125 15.1875 6.214844 15.1875 6.226562 15.1875 6.347656 15.191406 6.46875 15.195312 6.59375 15.1875 7.753906 15.1875 8.796875 14.746094 9.636719 13.945312 9.675781 13.90625 9.675781 13.90625 9.71875 13.867188 10.398438 13.183594 11.277344 12.785156 12.242188 12.785156 13.121094 12.785156 13.960938 13.105469 14.601562 13.707031 14.5625 14.308594 14.441406 14.90625 14.28125 15.46875zM14.644531 12.382812L14.644531 12.75C13.945312 12.257812 13.117188 11.984375 12.242188 11.984375 11.078125 11.984375 10.039062 12.425781 9.195312 13.226562 9.15625 13.265625 9.15625 13.265625 9.117188 13.304688 8.761719 13.660156 8.351562 13.9375 7.90625 14.121094 9.082031 12.496094 9.738281 9.246094 9.792969 6.027344 10.28125 6.078125 10.757812 6.21875 11.199219 6.457031L11.683594 6.714844C13.03125 7.652344 14.644531 9.402344 14.644531 12.382812zM7.792969 5.492188L7.792969 3.972656 11 3.972656 11 5.496094C10.6875 5.375 10.378906 5.300781 10.058594 5.257812 9.300781 5.140625 8.523438 5.21875 7.792969 5.492188zM8.59375 3.171875L8.59375 2.769531 8.996094 2.769531C9.234375 2.769531 9.394531 2.609375 9.394531 2.371094 9.394531 2.128906 9.234375 1.96875 8.996094 1.96875L8.59375 1.96875 8.59375 1.570312 10.199219 1.570312 10.199219 3.171875zM21.414062 17.589844C20.652344 17.589844 19.8125 16.027344 19.8125 13.785156 19.8125 11.542969 20.652344 9.980469 21.414062 9.980469 22.171875 9.980469 23.015625 11.542969 23.015625 13.785156 23.015625 16.027344 22.171875 17.589844 21.414062 17.589844zM21.414062 17.589844"/>
</svg>

<svg xmlns="http://www.w3.org/2000/svg" width="32" height="32" viewBox="0 0 24 24">
    <path d="M3.79 2.77h.397c.243 0 .403-.16.403-.399 0-.242-.16-.402-.402-.402h-.399c-.242 0-.402.16-.402.402 0 .238.16.399.402.399zm0 0M.984 1.969H.586c-.242 0-.402.16-.402.402 0 .238.16.399.402.399h.398c.243 0 .403-.16.403-.399 0-.242-.16-.402-.403-.402zm0 0M5.39 1.969c-.238 0-.398.16-.398.402 0 .238.16.399.399.399h.402c.238 0 .398-.16.398-.399 0-.242-.16-.402-.398-.402zm0 0M2.188 2.77h.398c.242 0 .402-.16.402-.399 0-.242-.16-.402-.402-.402h-.398c-.243 0-.403.16-.403.402 0 .238.16.399.403.399zm0 0M3.75 1.129l.398.082c.04 0 .04.039.082.039.2 0 .36-.16.399-.36.043-.203-.117-.44-.32-.484L3.91.328C3.707.29 3.47.45 3.43.648a.41.41 0 0 0 .32.48zm0 0M5.313 1.488l.398.082h.082c.2 0 .36-.12.398-.32.04-.2-.12-.441-.32-.48L5.473.687c-.203-.039-.442.122-.48.32a.431.431 0 0 0 .32.481zm0 0M2.188.77l.398.12h.082c.16 0 .36-.12.398-.324.043-.199-.117-.437-.32-.48L2.348.008c-.2-.04-.403.078-.48.32-.04.2.12.402.32.442zm0 0M2.586 3.895l-.398.078c-.2.039-.36.242-.32.48.038.2.198.32.398.32.043 0 .082 0 .082-.039l.398-.082c.242-.039.363-.277.32-.48a.428.428 0 0 0-.48-.277zm0 0M4.148 3.531l-.398.082c-.203.04-.363.282-.32.48.039.2.199.321.398.321h.082l.399-.082c.242-.039.363-.238.32-.48-.04-.239-.277-.36-.48-.32zm0 0M5.39 4.055h.083l.398-.082c.242-.04.36-.282.32-.48-.039-.243-.28-.36-.48-.321l-.399.078a.406.406 0 0 0-.32.484c.04.2.2.32.399.32zm0 0M21.813 9.238v-2.46c0-2.645-2.165-4.81-4.805-4.81H11v-.8c0-.238-.16-.398-.402-.398H8.195c-.242 0-.402.16-.402.398v2.004h-.04a.76.76 0 0 0-.76.762v1.953c-.067.039-.134.082-.2.129-1.563 1.043-3.406 3.004-3.406 6.41v.719c0 .683.097 1.367.254 2.035.043.191.093.379.148.57l2.043 6.648A2.235 2.235 0 0 0 7.996 24h2.844c1 0 1.84-.64 2.16-1.602l2.043-6.691a9.38 9.38 0 0 0 .363-2.121.393.393 0 0 0-.047-.172c.004-.09.004-.18.004-.27v-.718c0-3.406-1.84-5.367-3.402-6.41a2.11 2.11 0 0 0-.121-.079V3.934a.76.76 0 0 0-.762-.762H11V2.77h6.008a4.018 4.018 0 0 1 4.004 4.007v2.461c-1.16.344-2.004 2.172-2.004 4.547 0 2.645 1.043 4.606 2.406 4.606 1.36 0 2.402-1.961 2.402-4.606 0-2.375-.843-4.203-2.003-4.547zM4.188 12.383c0-2.93 1.562-4.676 2.894-5.656l.473-.27a3.99 3.99 0 0 1 1.437-.43c-.078 4.797-1.422 8.13-2.672 8.348a3.48 3.48 0 0 1-2.125-.945c-.004-.11-.008-.215-.008-.325zm8.054 9.773A1.459 1.459 0 0 1 10.84 23.2H7.996c-.64 0-1.203-.441-1.402-1.043L4.55 15.47a7.436 7.436 0 0 1-.227-.914c.567.367 1.188.59 1.867.629v.004h.036c.12.003.242.007.367 0 1.16 0 2.203-.442 3.043-1.243.039-.039.039-.039.082-.078.68-.683 1.558-1.082 2.523-1.082.88 0 1.719.32 2.36.922-.04.602-.16 1.2-.32 1.762zm2.403-9.773v.367a4.155 4.155 0 0 0-2.403-.766c-1.164 0-2.203.442-3.047 1.243l-.078.078a3.725 3.725 0 0 1-1.21.816c1.175-1.625 1.831-4.875 1.886-8.094.488.051.965.192 1.406.43l.485.258c1.347.937 2.96 2.687 2.96 5.668zm-6.852-6.89v-1.52H11v1.523a4.062 4.062 0 0 0-.941-.238 4.492 4.492 0 0 0-2.266.234zm.8-2.321V2.77h.403c.238 0 .399-.16.399-.399 0-.242-.16-.402-.399-.402h-.402V1.57h1.605v1.602zM21.415 17.59c-.762 0-1.602-1.563-1.602-3.805s.84-3.805 1.602-3.805c.758 0 1.602 1.563 1.602 3.805s-.844 3.805-1.602 3.805zm0 0"/>
</svg>
